X:1
T:The Skye Boat Song  "CCPB Sep-1995"
M:6/8
L:1/8
Q:80
C:Trad.
S:Slow Air
K:HP
|: {g}A3/2{d}B/2{e}A{Gdc}d3/2{g}c/2d | \
{g}e3/2f/2{g}e{ag}a2 | \
{fg}f3/2{g}e/2f{g}B2{GdGe}B2 |
{g}A3{GAG}A3 :: \
{gfg}f3/2{g}d/2f{gfg}f3 | \
{gef}e3/2{g}B/2e{A}e3 |
{Gdc}d3/2{g}B/2d{gde}d2c | \
{g}B3{GdGe}B3:| [ | \
{g}A3/2{d}B/2{e}A{Gdc}d3/2{g}c/2d |
{g}e3/2f/2{g}e{ag}a2|1
{fg}f3/2{g}e/2f{g}B2{GdGe}B2 | \
{g}A3{GAG}A3:|2
{fg}f3/2{g}e/2f{g}B2{d}c | \
{Gdc}d3{gdc}d3|]
